img/partner-7.svg

<svg width="346" height="156" viewBox="0 0 346 156" fill="none" xmlns="http://www.w3.org/2000/svg">
<rect width="346" height="156" rx="14" fill="#E1E1E1"/>
<path d="M284.639 70.3804C284.107 70.8982 283.528 71.2259 282.99 71.5929C281.967 72.2745 281.044 73.061 280.244 73.9786C279.153 75.237 278.42 76.633 278.251 78.3239C278.137 79.5233 277.935 80.7096 278.15 81.9025C278.52 84.0129 278.938 86.1167 280.001 88.024C280.843 89.538 281.792 90.9864 282.821 92.3956C284.215 94.3028 285.998 95.8299 287.721 97.416C288.697 98.3139 289.848 99.0152 290.932 99.782C291.659 100.3 292.412 100.759 293.227 101.139C293.328 101.185 293.429 101.237 293.53 101.283C294.385 101.63 294.465 101.578 294.465 100.673C294.465 89.3414 294.465 78.0093 294.465 66.6839C294.465 64.7504 293.584 63.243 292.069 62.0698C291.443 61.5848 290.689 61.3489 289.882 61.3489C286.065 61.3489 282.256 61.3161 278.44 61.3554C270.188 61.4275 261.936 61.362 253.678 61.3882C253.045 61.3882 253.038 61.3816 253.038 60.7852C253.038 55.7844 253.038 50.7837 253.038 45.7894C253.038 45.6584 253.038 45.5273 253.052 45.3962C253.065 45.2455 253.146 45.1603 253.308 45.1537C253.489 45.1537 253.664 45.1471 253.846 45.1471C263.626 45.1471 273.405 45.1406 283.185 45.1537C284.484 45.1537 285.79 45.2848 287.055 45.5601C288.845 45.9533 290.44 46.7726 291.941 47.8147C293.449 48.8633 294.701 50.1676 295.98 51.4456C299.103 54.5785 302.219 57.7113 305.342 60.8442C308.263 63.7739 311.184 66.697 314.098 69.6332C315.189 70.7343 316.272 71.8354 317.376 72.9168C318.083 73.6115 318.615 74.457 319.2 75.2501C320.163 76.5543 320.863 77.97 321.361 79.5037C321.832 80.9587 322.027 82.4268 322.027 83.9408C322.014 91.4321 322.02 98.9169 322.02 106.408C322.02 107.201 322.135 107.129 321.253 107.129C304.972 107.129 288.684 107.129 272.402 107.129C270.807 107.129 269.226 106.952 267.664 106.683C266.944 106.559 266.257 106.257 265.571 105.995C263.787 105.314 262.239 104.245 260.637 103.243C258.921 102.174 257.487 100.798 256.02 99.4543C254.889 98.4188 254.035 97.1604 253.227 95.8758C253.146 95.7447 253.072 95.6071 252.985 95.4825C252.204 94.3683 251.793 93.0968 251.349 91.8385C250.804 90.2983 250.662 88.6991 250.521 87.0868C250.4 85.7563 250.521 84.4717 250.817 83.2002C251.288 81.1684 252.143 79.2808 253.193 77.4588C254.236 75.6499 255.832 74.4177 257.528 73.2576C258.524 72.576 259.587 72.0124 260.725 71.6126C262.697 70.9178 264.669 70.2427 266.836 70.2624C272.53 70.3017 278.231 70.2755 283.925 70.2755C284.12 70.2886 284.322 70.2493 284.639 70.3804Z" fill="#045596"/>
<path d="M167.452 70.557C166.873 71.1272 166.294 71.6974 165.709 72.261C161.314 76.5669 156.925 80.8727 152.53 85.1786C152.2 85.5063 151.864 85.8274 151.554 86.1748C151.325 86.4304 151.063 86.4893 150.726 86.4893C143.619 86.4828 136.505 86.4893 129.397 86.4893C129.31 86.4893 129.215 86.4893 129.128 86.4893C128.226 86.5287 127.815 86.9219 127.775 87.787C127.768 87.9836 127.775 88.1802 127.775 88.3769C127.775 94.3343 127.775 100.298 127.775 106.256C127.775 107.173 127.842 107.088 126.893 107.088C118.507 107.088 110.114 107.088 101.728 107.088C100.826 107.088 100.893 107.16 100.893 106.282C100.893 98.201 100.88 90.1267 100.9 82.0459C100.907 79.6734 101.297 77.3599 102.495 75.2299C102.906 74.5024 103.39 73.847 104.003 73.2506C106.062 71.2452 108.081 69.2004 110.114 67.1687C111.554 65.7334 112.988 64.285 114.428 62.8497C117.275 60.0054 120.122 57.161 122.969 54.3167C124.565 52.7241 126.173 51.1381 127.755 49.5324C128.623 48.6476 129.505 47.7891 130.535 47.0681C131.383 46.4783 132.285 45.9933 133.261 45.6853C134.344 45.3379 135.461 45.1348 136.626 45.1348C146.809 45.1479 156.993 45.1413 167.176 45.1413C168.078 45.1413 168.004 45.0692 168.004 45.954C168.004 50.6924 168.004 55.4308 168.004 60.1692C168.004 61.1523 168.118 61.0147 167.169 61.0147C155.66 61.0147 144.157 61.0147 132.648 61.0147C130.541 61.0147 128.273 62.7842 127.795 64.7831C127.748 64.9732 127.721 65.1698 127.721 65.3664C127.715 66.8738 127.715 68.3812 127.721 69.8885C127.721 70.3997 127.735 70.4063 128.233 70.4128C128.569 70.4194 128.906 70.4128 129.242 70.4128C141.714 70.4128 154.186 70.4128 166.658 70.4128C166.9 70.4128 167.149 70.4128 167.391 70.4128C167.412 70.4653 167.432 70.5111 167.452 70.557Z" fill="#045596"/>
<path d="M206.024 71.0172C206.024 62.6545 206.024 54.2919 206.024 45.9292C206.024 45.1034 205.93 45.1427 206.812 45.1427C211.119 45.1427 215.427 45.1165 219.735 45.1493C223.504 45.1821 227.273 45.1558 231.035 45.169C231.15 45.169 231.257 45.1755 231.372 45.169C231.641 45.1493 231.728 45.2869 231.722 45.5229C231.715 45.7195 231.722 45.9161 231.722 46.1127C231.722 59.4956 231.728 72.8785 231.715 86.2614C231.715 88.2013 232.583 89.7152 234.077 90.8949C234.623 91.3275 235.349 91.4979 236.097 91.4979C239.98 91.4913 243.857 91.4913 247.74 91.4979C248.723 91.4979 248.622 91.3603 248.622 92.3826C248.629 96.99 248.622 101.597 248.622 106.205C248.622 106.316 248.622 106.421 248.622 106.532C248.609 107.03 248.609 107.037 248.084 107.037C246.623 107.044 245.169 107.037 243.709 107.037C234.717 107.037 225.718 107.024 216.726 107.057C215.548 107.063 214.411 106.939 213.28 106.683C212.991 106.618 212.721 106.526 212.466 106.382C212.082 106.159 211.665 105.988 211.268 105.785C210.52 105.412 209.935 104.815 209.383 104.232C208.104 102.888 207.128 101.355 206.637 99.5656C206.273 98.2352 206.011 96.8982 206.018 95.5088C206.038 87.3493 206.024 79.1833 206.024 71.0172Z" fill="#045596"/>
<path d="M90.2661 98.6016C89.768 98.2477 89.5257 97.8675 89.2699 97.5333C88.1863 96.098 86.7729 95.0232 85.272 94.0729C83.7239 93.0898 81.974 92.6376 80.1029 92.6901C79.3894 92.7097 78.6693 92.6639 77.9558 92.8015C75.9232 93.1816 74.1665 93.9877 72.7194 95.5016C70.1887 98.1559 67.5638 100.725 64.9792 103.333C62.5966 105.739 60.2274 108.15 57.8448 110.549C57.69 110.706 57.6227 110.916 57.4275 111.1C56.7208 110.392 56.0208 109.691 55.3276 108.989C53.3824 107.023 51.4373 105.064 49.4989 103.097C47.123 100.692 44.7404 98.287 42.3645 95.8752C41.6645 95.1674 40.9645 94.453 40.0693 93.9812C38.8107 93.3192 37.4713 92.926 36.0444 92.8474C35.4858 92.8146 34.9272 92.8408 34.3685 92.7753C34.1935 92.7556 34.0118 92.7753 33.8301 92.8015C31.7705 93.0833 29.9129 93.778 28.2773 95.0822C27.1399 95.9866 26.1168 96.9762 25.2216 98.1035C25.1005 98.2608 24.9659 98.4115 24.838 98.5557C24.8111 98.5885 24.764 98.595 24.7236 98.6147C24.5284 98.5688 24.589 98.4115 24.589 98.2935C24.589 90.4552 24.589 82.6169 24.589 74.7786C24.589 74.0184 24.838 73.3106 25.1678 72.6421C25.9284 71.1151 26.9514 69.765 28.2841 68.6574C29.1254 67.9561 30.0946 67.4515 31.0571 66.9403C31.2522 66.8354 31.4676 66.7502 31.683 66.7109C33.3185 66.4422 34.9541 66.0686 36.6165 66.2849C38.7367 66.5602 40.7424 67.1762 42.6673 68.1396C46.8538 70.2303 49.7075 73.5268 51.8815 77.4722C53.1738 79.8054 53.9478 82.3482 54.816 84.8518C55.6237 87.1849 56.4045 89.5312 57.1987 91.8708C57.2323 91.9692 57.2862 92.0675 57.34 92.192C57.616 92.0937 57.616 91.8512 57.6833 91.6611C58.4909 89.2821 59.2986 86.8965 60.113 84.5175C60.8063 82.4924 61.4726 80.4476 62.3947 78.5077C63.9495 75.2374 66.0831 72.3799 68.9436 70.0664C69.5493 69.5749 70.2156 69.1751 70.882 68.7688C73.1165 67.4122 75.5328 66.5209 78.1443 66.1801C79.201 66.0424 80.2442 66.1407 81.2875 66.3177C81.4826 66.3505 81.6846 66.3832 81.8865 66.3963C82.9163 66.4619 83.8249 66.8158 84.7201 67.3204C86.2614 68.1921 87.5604 69.2931 88.5767 70.7087C89.0007 71.2986 89.3978 71.9081 89.7007 72.5634C90.0709 73.3695 90.2728 74.2019 90.2661 75.0997C90.2526 82.6759 90.2593 90.2521 90.2593 97.8282C90.2661 98.0248 90.2661 98.2346 90.2661 98.6016Z" fill="#045596"/>
<path d="M197.962 76.1329C197.962 86.1735 197.962 96.214 197.962 106.261C197.962 107.126 198.077 107.041 197.188 107.041C189.179 107.041 181.176 107.041 173.167 107.041C172.218 107.041 172.285 107.159 172.285 106.215C172.285 86.1341 172.285 66.0466 172.285 45.9655C172.285 45.0152 172.258 45.1528 173.106 45.1463C181.116 45.1463 189.118 45.1463 197.128 45.1463C198.043 45.1463 197.962 45.0414 197.962 45.9459C197.962 56.006 197.962 66.0662 197.962 76.1329Z" fill="#045596"/>
<path d="M81.2131 61.5913C80.816 61.5716 80.4256 61.5192 80.0285 61.5323C77.9824 61.5913 75.9834 61.8403 74.0316 62.5219C71.6557 63.3542 69.3403 64.2586 67.2808 65.7003C64.6828 67.5222 62.6232 69.8422 60.9338 72.4767C59.6887 74.4231 58.7801 76.5399 57.9387 78.6764C57.858 78.8795 57.831 79.0958 57.6157 79.3186C57.4541 78.9188 57.3128 78.5518 57.1647 78.1848C56.2292 75.8911 55.2128 73.6367 53.7927 71.5789C50.8514 67.3387 46.9881 64.2651 41.9267 62.7119C41.819 62.6792 41.7113 62.6529 41.6103 62.6136C39.7998 61.8141 37.8546 61.6437 35.9162 61.4471C35.6268 61.4209 35.3374 61.4602 35.048 61.4799C34.7586 61.4995 34.4692 61.5257 34.173 61.5388C34.1394 61.5388 34.099 61.5126 34.0586 61.4995C34.3615 61.008 56.3368 39.224 57.6426 38.123C65.5174 45.9021 73.3989 53.6812 81.2737 61.4668C81.2535 61.4995 81.2333 61.5454 81.2131 61.5913Z" fill="#045596"/>
</svg>

<svg width="346" height="156" fill="none" xmlns="http://www.w3.org/2000/svg"><rect width="346" height="156" rx="14" fill="#E1E1E1"/><path d="M284.639 70.38c-.532.518-1.111.846-1.649 1.213a13.657 13.657 0 00-2.746 2.386c-1.091 1.258-1.824 2.654-1.993 4.345-.114 1.2-.316 2.386-.101 3.579.37 2.11.788 4.214 1.851 6.121a42.204 42.204 0 002.82 4.372c1.394 1.907 3.177 3.434 4.9 5.02.976.898 2.127 1.6 3.211 2.366.727.518 1.48.977 2.295 1.357.101.046.202.098.303.144.855.347.935.295.935-.61v-33.99c0-1.933-.881-3.44-2.396-4.613-.626-.485-1.38-.721-2.187-.721-3.817 0-7.626-.033-11.442.006-8.252.073-16.504.007-24.762.033-.633 0-.64-.006-.64-.603V45.79c0-.13 0-.262.014-.393.013-.15.094-.236.256-.242.181 0 .356-.007.538-.007 9.78 0 19.559-.006 29.339.007 1.299 0 2.605.13 3.87.406 1.79.393 3.385 1.213 4.886 2.255 1.508 1.048 2.76 2.353 4.039 3.63 3.123 3.133 6.239 6.266 9.362 9.4 2.921 2.929 5.842 5.852 8.756 8.788 1.091 1.101 2.174 2.202 3.278 3.284.707.695 1.239 1.54 1.824 2.333.963 1.304 1.663 2.72 2.161 4.254.471 1.455.666 2.923.666 4.437-.013 7.491-.007 14.976-.007 22.467 0 .793.115.721-.767.721h-48.851c-1.595 0-3.176-.177-4.738-.446-.72-.124-1.407-.426-2.093-.688-1.784-.681-3.332-1.75-4.934-2.752-1.716-1.069-3.15-2.445-4.617-3.789-1.131-1.035-1.985-2.294-2.793-3.578-.081-.131-.155-.269-.242-.394-.781-1.114-1.192-2.385-1.636-3.644-.545-1.54-.687-3.139-.828-4.751-.121-1.33 0-2.615.296-3.887.471-2.032 1.326-3.92 2.376-5.741 1.043-1.81 2.639-3.041 4.335-4.201a13.715 13.715 0 013.197-1.645c1.972-.695 3.944-1.37 6.111-1.35 5.694.039 11.395.012 17.089.012.195.014.397-.026.714.105zm-117.187.177c-.579.57-1.158 1.14-1.743 1.704-4.395 4.306-8.784 8.612-13.179 12.918-.33.327-.666.648-.976.996-.229.255-.491.314-.828.314-7.107-.006-14.221 0-21.329 0h-.269c-.902.04-1.313.433-1.353 1.298-.007.197 0 .393 0 .59v17.879c0 .917.067.832-.882.832h-25.165c-.902 0-.835.072-.835-.806 0-8.081-.013-16.155.007-24.236.007-2.373.397-4.686 1.595-6.816a8.64 8.64 0 011.508-1.98c2.059-2.005 4.078-4.05 6.111-6.081 1.44-1.436 2.874-2.884 4.314-4.32l8.541-8.532c1.596-1.593 3.204-3.179 4.786-4.785.868-.884 1.75-1.743 2.78-2.464.848-.59 1.75-1.075 2.726-1.383a10.95 10.95 0 013.365-.55c10.183.013 20.367.006 30.55.006.902 0 .828-.072.828.813v14.215c0 .983.114.846-.835.846h-34.521c-2.107 0-4.375 1.77-4.853 3.768-.047.19-.074.387-.074.583a568.04 568.04 0 000 4.522c0 .512.014.518.512.525.336.006.673 0 1.009 0h38.149l.061.144zm38.572.46V45.93c0-.826-.094-.786.788-.786 4.307 0 8.615-.026 12.923.006 3.769.033 7.538.007 11.3.02.115 0 .222.007.337 0 .269-.02.356.118.35.354-.007.196 0 .393 0 .59 0 13.383.006 26.766-.007 40.148 0 1.94.868 3.454 2.362 4.634.546.433 1.272.603 2.02.603 3.883-.007 7.76-.007 11.643 0 .983 0 .882-.138.882.885.007 4.607 0 9.214 0 13.822v.327c-.013.498-.013.505-.538.505-1.461.007-2.915 0-4.375 0-8.992 0-17.991-.013-26.983.02a15.132 15.132 0 01-3.446-.374 2.94 2.94 0 01-.814-.301c-.384-.223-.801-.394-1.198-.597-.748-.373-1.333-.97-1.885-1.553-1.279-1.344-2.255-2.877-2.746-4.666-.364-1.33-.626-2.668-.619-4.057.02-8.16.006-16.326.006-24.492zM90.266 98.602c-.498-.354-.74-.734-.996-1.069-1.084-1.435-2.497-2.51-3.998-3.46-1.548-.983-3.298-1.435-5.17-1.383-.713.02-1.433-.026-2.146.112-2.033.38-3.79 1.186-5.237 2.7-2.53 2.654-5.155 5.223-7.74 7.831-2.382 2.406-4.752 4.817-7.134 7.216-.155.157-.222.367-.417.551a519.06 519.06 0 01-2.1-2.111c-1.946-1.966-3.89-3.925-5.83-5.892-2.375-2.405-4.758-4.81-7.133-7.222-.7-.708-1.4-1.422-2.296-1.894a9.713 9.713 0 00-4.025-1.134c-.558-.032-1.117-.006-1.675-.072-.175-.02-.357 0-.539.026-2.06.282-3.917.977-5.553 2.281-1.137.905-2.16 1.894-3.055 3.022a9.029 9.029 0 01-.384.452c-.027.032-.074.039-.114.059-.196-.046-.135-.203-.135-.322V74.78c0-.76.249-1.468.579-2.137.76-1.527 1.783-2.877 3.116-3.985.841-.7 1.81-1.206 2.773-1.717.195-.105.41-.19.626-.23 1.636-.268 3.271-.641 4.934-.425a18.78 18.78 0 016.05 1.855c4.187 2.09 7.04 5.387 9.215 9.332 1.292 2.333 2.066 4.876 2.934 7.38.808 2.333 1.588 4.68 2.383 7.019.033.098.087.197.141.321.276-.098.276-.34.343-.53.808-2.38 1.616-4.766 2.43-7.145.693-2.025 1.36-4.07 2.282-6.01 1.554-3.27 3.688-6.127 6.549-8.44.605-.492 1.272-.892 1.938-1.298 2.234-1.357 4.65-2.248 7.262-2.589 1.057-.138 2.1-.04 3.143.138.196.032.398.065.6.078 1.03.066 1.938.42 2.833.924 1.541.872 2.84 1.973 3.857 3.389.424.59.82 1.2 1.124 1.854.37.806.572 1.639.565 2.537-.013 7.576-.007 15.152-.007 22.728.007.197.007.407.007.774zm107.696-22.469v30.128c0 .865.115.78-.774.78h-24.021c-.949 0-.882.118-.882-.826v-60.25c0-.95-.027-.812.821-.819h24.022c.915 0 .834-.105.834.8v30.187z" fill="#045596"/><path d="M81.213 61.591c-.397-.02-.787-.072-1.184-.059-2.047.06-4.046.308-5.997.99-2.376.832-4.692 1.737-6.751 3.178-2.598 1.822-4.658 4.142-6.347 6.777-1.245 1.946-2.154 4.063-2.995 6.2-.081.202-.108.419-.323.642-.162-.4-.303-.767-.451-1.134-.936-2.294-1.952-4.548-3.372-6.606-2.942-4.24-6.805-7.314-11.866-8.867-.108-.033-.216-.06-.317-.098-1.81-.8-3.755-.97-5.694-1.167-.29-.026-.579.013-.868.033-.29.02-.579.046-.875.059-.034 0-.074-.026-.114-.04.303-.491 22.278-22.275 23.584-23.376 7.874 7.78 15.756 15.558 23.63 23.344-.02.032-.04.078-.06.124z" fill="#045596"/></svg>
